X:1
T:Title
%%score 1 { 2 | 3 }
L:1/8
Q:1/4=113
M:4/4
K:Ab
V:1 treble nm="Grand Piano, Staff 1"
V:2 bass nm="Choir Pad, Gorton, SM"
V:3 bass 
V:1
 [CE]2 [CE]2 [CE]2 [DF]2 | [DF]2 [CE]6 | [CE]2 [B,E]2 [B,E]2 [CA]2 | [CA]2 [EB]6 | %4
w: By~Arr.~from~Beethoven~by~John~E.~West~(1863\-1929) * * *||||
 [EB]2 [Ec]2 [Ec]2 [DA]2 | [DA]2 [FB]2 [GB]2 A2 | [EA]2 [EA]2 [EA]2 [EA]2 | [EG]2 [EA]6- | %8
w: ||||
 [EA]2 z2 z4 |] %9
w: |
V:2
 A,2 A,2 A,2 A,2 | A,2 A,6 | A,2 B,2 B,2 A,2 | A,2 G,6 | G,2 A,2 A,2 F,2 | F,2[K:treble] D2 D2 C2 | %6
 C2 C2[K:bass] _C2 B,2 | B,2 C6- | C2 z2 z4 |] %9
V:3
 A,,2 A,,2 A,,2 D,2 | D,2 A,,6 | z2 G,2 G,2 F,2 | F,2 E,6 | E,2 A,,2 A,,2 D,2 | D,2 B,,2 E,2 A,,2 | %6
 C,2 E,2 E,2 E,2 | E,2 A,,6- | A,,2 z2 z4 |] %9

